X:276
T: ES HATT EIN BAUR SEIN FRAU VERLOREN
N: E0154A
O: Europa, Mitteleuropa, Deutschland
R: erzaehlendes Volks - Lied, Scherz, Schwank, betrogener Ehemann,
M: 4/4
L: 1/8
K: G
G2 | G2G2G2G2 | A2A2A2
G2 | B2c2d2B2 | A4G2
G2 | G2G2G2G2 | A2A2A2
G2 | B2c2d2B2 | A4G2
G2 | d2d2d2c2 | B2B2A2
A2 | B2B2Bcd2 | B2c2A4 | z2
G2A2G2 | c4z2
e2 | d2c2dGA2 | G4z2

@@@ Tune index: 3926
